Newaita-dark/apps/48/preferences-plugin.svg

<svg height="48" viewBox="0 0 48 48" width="48" xmlns="http://www.w3.org/2000/svg" xmlns:xlink="http://www.w3.org/1999/xlink"><linearGradient id="a"><stop offset="0" stop-opacity=".27451"/><stop offset="1" stop-opacity="0"/></linearGradient><linearGradient id="b" gradientTransform="matrix(.0210958 0 0 .093759 5.804849 18.173614)" gradientUnits="userSpaceOnUse" x1="254" x2="254" xlink:href="#a" y1="233.5" y2="254.666672"/><linearGradient id="c"><stop offset="0" stop-opacity=".313726"/><stop offset=".222222" stop-opacity=".27451"/><stop offset="1" stop-opacity="0"/></linearGradient><radialGradient id="d" cx="450.908936" cy="189.579361" gradientTransform="matrix(.00000026 -.117199 -.210958 -.00000015 52.892782 93.408435)" gradientUnits="userSpaceOnUse" r="21.166656" xlink:href="#c"/><radialGradient id="e" cx="450.908936" cy="189.579361" gradientTransform="matrix(-.00000026 .117199 .210958 .00000015 -30.566426 -13.275782)" gradientUnits="userSpaceOnUse" r="21.166656" xlink:href="#c"/><radialGradient id="f" cx="450.908936" cy="189.579361" gradientTransform="matrix(-.00000026 -.117199 .210958 -.00000015 -30.566426 93.408435)" gradientUnits="userSpaceOnUse" r="21.166656" xlink:href="#c"/><radialGradient id="g" cx="450.908936" cy="189.579361" gradientTransform="matrix(.00000026 .117199 -.210958 .00000015 52.892776 -13.275783)" gradientUnits="userSpaceOnUse" r="21.166656" xlink:href="#c"/><linearGradient id="h" gradientTransform="matrix(.0210958 0 0 .093759 21.681369 18.173614)" gradientUnits="userSpaceOnUse" x1="254" x2="254" xlink:href="#a" y1="233.5" y2="254.666672"/><radialGradient id="i" cx="450.908936" cy="189.579361" gradientTransform="matrix(.00000026 -.117199 -.210958 -.00000015 68.769302 93.408435)" gradientUnits="userSpaceOnUse" r="21.166656" xlink:href="#c"/><radialGradient id="j" cx="450.908936" cy="189.579361" gradientTransform="matrix(-.00000026 .117199 .210958 .00000015 -14.689906 -13.275782)" gradientUnits="userSpaceOnUse" r="21.166656" xlink:href="#c"/><radialGradient id="k" cx="450.908936" cy="189.579361" gradientTransform="matrix(-.00000026 -.117199 .210958 -.00000015 -14.689906 93.408435)" gradientUnits="userSpaceOnUse" r="21.166656" xlink:href="#c"/><radialGradient id="l" cx="450.908936" cy="189.579361" gradientTransform="matrix(.00000026 .117199 -.210958 .00000015 68.769296 -13.275783)" gradientUnits="userSpaceOnUse" r="21.166656" xlink:href="#c"/><linearGradient id="m" gradientUnits="userSpaceOnUse" x1="18.853396" x2="18.853396" y1="40.06639780616" y2="4.34417306195"><stop offset="0" stop-color="#5c6bc0"/><stop offset="1" stop-color="#7986cb"/></linearGradient><path d="m8.929688 40.066406h4.464843v1.984375h-4.464843zm0 0" fill="url(#b)"/><path d="m13.394531 40.066406h3.96875v-1.984375h-3.96875zm0 0" fill="url(#d)"/><path d="m8.929688 40.066406h-3.96875v1.984375h3.96875zm0 0" fill="url(#e)"/><path d="m8.929688 40.066406h-3.96875v-1.984375h3.96875zm0 0" fill="url(#f)"/><path d="m13.394531 40.066406h3.96875v1.984375h-3.96875zm0 0" fill="url(#g)"/><path d="m24.808594 40.066406h4.464844v1.984375h-4.464844zm0 0" fill="url(#h)"/><path d="m29.273438 40.066406h3.96875v-1.984375h-3.96875zm0 0" fill="url(#i)"/><path d="m24.808594 40.066406h-3.96875v1.984375h3.96875zm0 0" fill="url(#j)"/><path d="m24.808594 40.066406h-3.96875v-1.984375h3.96875zm0 0" fill="url(#k)"/><path d="m29.273438 40.066406h3.96875v1.984375h-3.96875zm0 0" fill="url(#l)"/><path d="m18.851562 4.34375c-2.746093 0-4.960937 2.214844-4.960937 4.960938 0 1.628906.78125 3.070312 1.984375 3.976562v.984375h-8.929688c-.550781 0-.992187.445313-.992187.992187v8.933594h.988281c.902344-1.207031 2.34375-1.984375 3.972656-1.984375 2.75 0 4.960938 2.210938 4.960938 4.960938 0 2.746093-2.210938 4.960937-4.960938 4.960937-1.628906 0-3.070312-.777344-3.972656-1.984375h-.988281v8.929688c0 .550781.441406.992187.992187.992187h8.929688v-.988281c-1.203125-.902344-1.984375-2.34375-1.984375-3.972656 0-2.75 2.214844-4.960938 4.960937-4.960938 2.75 0 4.964844 2.210938 4.964844 4.960938 0 1.628906-.78125 3.070312-1.984375 3.972656v.988281h8.929688c.546875 0 .992187-.441406.992187-.992187v-8.929688h.984375c.90625 1.207031 2.347657 1.984375 3.976563 1.984375 2.75 0 4.960937-2.214844 4.960937-4.960937 0-2.75-2.210937-4.960938-4.960937-4.960938-1.628906 0-3.070313.777344-3.976563 1.984375h-.984375v-8.933594c0-.546874-.445312-.992187-.992187-.992187h-8.929688v-.984375c1.203125-.90625 1.984375-2.347656 1.984375-3.976562 0-2.746094-2.214844-4.960938-4.964844-4.960938zm0 0" fill="url(#m)"/><path d="m18.851562 4.34375c-2.746093 0-4.960937 2.214844-4.960937 4.960938 0 .125.007813.246093.015625.371093.191406-2.574219 2.324219-4.585937 4.945312-4.585937 2.625 0 4.757813 2.011718 4.949219 4.585937.007813-.125.015625-.246093.015625-.371093 0-2.746094-2.214844-4.960938-4.964844-4.960938zm-11.90625 9.921875c-.550781 0-.992187.445313-.992187.992187v.746094c0-.550781.441406-.992187.992187-.992187h8.929688v-.746094zm14.886719 0v.746094h8.929688c.546875 0 .992187.441406.992187.992187v-.746094c0-.546874-.445312-.992187-.992187-.992187zm14.882813 7.941406c-1.628906 0-3.070313.777344-3.976563 1.984375h-.984375v.742188h.984375c.90625-1.207032 2.347657-1.984375 3.976563-1.984375 2.625 0 4.757812 2.015625 4.945312 4.589843.011719-.121093.015625-.246093.015625-.371093 0-2.75-2.210937-4.960938-4.960937-4.960938zm-20.851563 5.332031c-.191406 2.574219-2.324219 4.589844-4.949219 4.589844-1.628906 0-3.070312-.777344-3.972656-1.984375h-.988281v.742188h.988281c.902344 1.207031 2.34375 1.984375 3.972656 1.984375 2.75 0 4.960938-2.210938 4.960938-4.960938 0-.125-.003906-.25-.011719-.371094zm-1.957031 7.933594c-.007812.125-.015625.25-.015625.375 0 1.632813.78125 3.074219 1.984375 3.976563v-.746094c-1.113281-.832031-1.863281-2.128906-1.96875-3.605469zm9.894531 0c-.109375 1.476563-.855469 2.773438-1.96875 3.605469v.746094c1.203125-.902344 1.984375-2.34375 1.984375-3.976563 0-.125-.007812-.25-.015625-.375zm0 0" fill="#fff" fill-opacity=".392157"/><path d="m13.90625 8.929688c-.007812.125-.015625.25-.015625.375 0 1.628906.78125 3.070312 1.984375 3.976562v-.746094c-1.113281-.832031-1.863281-2.128906-1.96875-3.605468zm9.894531 0c-.109375 1.476562-.855469 2.773437-1.96875 3.605468v.746094c1.203125-.90625 1.984375-2.347656 1.984375-3.976562 0-.125-.007812-.25-.015625-.375zm-12.886719 12.53125c-1.628906 0-3.070312.777343-3.972656 1.984374h-.988281v.746094h.988281c.902344-1.207031 2.34375-1.984375 3.972656-1.984375 2.625 0 4.757813 2.015625 4.949219 4.585938.007813-.121094.011719-.246094.011719-.371094 0-2.75-2.210938-4.960937-4.960938-4.960937zm30.746094 5.332031c-.1875 2.574219-2.320312 4.589843-4.945312 4.589843-1.628906 0-3.070313-.777343-3.976563-1.984374h-.984375v.746093h.984375c.90625 1.207031 2.347657 1.984375 3.976563 1.984375 2.75 0 4.960937-2.214844 4.960937-4.960937 0-.125-.003906-.25-.015625-.375zm-22.808594 2.605469c-2.746093 0-4.960937 2.214843-4.960937 4.960937 0 .125.007813.25.015625.371094.191406-2.574219 2.324219-4.585938 4.945312-4.585938 2.625 0 4.757813 2.011719 4.949219 4.585938.007813-.121094.015625-.246094.015625-.371094 0-2.746094-2.214844-4.960937-4.964844-4.960937zm-12.898437 8.929687v.746094c0 .550781.441406.992187.992187.992187h8.929688v-.746094h-8.929688c-.550781 0-.992187-.441406-.992187-.992187zm25.800781 0c0 .550781-.445312.992187-.992187.992187h-8.929688v.746094h8.929688c.546875 0 .992187-.441406.992187-.992187zm0 0" fill-opacity=".235294"/><path d="m759.927471 175.101398c-110.698097 0-199.980914 89.282817-199.980914 199.980913 0 65.663025 31.493057 123.767715 79.992366 160.299662v39.681252h-359.965644c-22.202606 0-39.996183 17.951042-39.996183 39.996182v360.12311h39.838717c36.374481-48.656774 94.479172-79.992366 160.142196-79.992366 110.855562 0 199.980914 89.125352 199.980914 199.980914 0 110.698096-89.125352 199.980913-199.980914 199.980913-65.663024 0-123.767715-31.335592-160.142196-79.992366h-39.838717v359.965644c0 22.202606 17.793577 39.996183 39.996183 39.996183h359.965644v-39.838717c-48.499309-36.374481-79.992366-94.479172-79.992366-160.142196 0-110.855562 89.282817-199.980914 199.980914-199.980914 110.855561 0 200.138378 89.125352 200.138378 199.980914 0 65.663024-31.493057 123.767715-79.992365 160.142196v39.838717h359.965644c22.04514 0 39.996182-17.793577 39.996182-39.996183v-359.965644h39.681252c36.531947 48.656774 94.636637 79.992366 160.299662 79.992366 110.855561 0 199.980913-89.282817 199.980913-199.980913 0-110.855562-89.125352-199.980914-199.980913-199.980914-65.663025 0-123.767715 31.335592-160.299662 79.992366h-39.681252v-360.12311c0-22.04514-17.951042-39.996182-39.996182-39.996182h-359.965644v-39.681252c48.499308-36.531947 79.992365-94.636637 79.992365-160.299662 0-110.698096-89.282817-199.980913-200.138378-199.980913zm0 0" fill="none" stroke="#212121" stroke-linecap="round" stroke-linejoin="round" stroke-width="11.338583" transform="scale(.0248071)"/></svg>

<?xml version="1.0" encoding="UTF-8"?>
<svg xmlns="http://www.w3.org/2000/svg" xmlns:xlink="http://www.w3.org/1999/xlink" width="48px" height="48px" viewBox="0 0 48 48" version="1.1">
<defs>
<linearGradient id="linear0" gradientUnits="userSpaceOnUse" x1="254" y1="233.5" x2="254" y2="254.666672" gradientTransform="matrix(0.0210958,0,0,0.093759,5.804849,18.173614)">
<stop offset="0" style="stop-color:rgb(0%,0%,0%);stop-opacity:0.27451;"/>
<stop offset="1" style="stop-color:rgb(0%,0%,0%);stop-opacity:0;"/>
</linearGradient>
<radialGradient id="radial0" gradientUnits="userSpaceOnUse" cx="450.908936" cy="189.579361" fx="450.908936" fy="189.579361" r="21.166656" gradientTransform="matrix(0.000000261256,-0.117199,-0.210958,-0.000000152308,52.892782,93.408435)">
<stop offset="0" style="stop-color:rgb(0%,0%,0%);stop-opacity:0.313726;"/>
<stop offset="0.222222" style="stop-color:rgb(0%,0%,0%);stop-opacity:0.27451;"/>
<stop offset="1" style="stop-color:rgb(0%,0%,0%);stop-opacity:0;"/>
</radialGradient>
<radialGradient id="radial1" gradientUnits="userSpaceOnUse" cx="450.908936" cy="189.579361" fx="450.908936" fy="189.579361" r="21.166656" gradientTransform="matrix(-0.000000261256,0.117199,0.210958,0.000000152308,-30.566426,-13.275782)">
<stop offset="0" style="stop-color:rgb(0%,0%,0%);stop-opacity:0.313726;"/>
<stop offset="0.222222" style="stop-color:rgb(0%,0%,0%);stop-opacity:0.27451;"/>
<stop offset="1" style="stop-color:rgb(0%,0%,0%);stop-opacity:0;"/>
</radialGradient>
<radialGradient id="radial2" gradientUnits="userSpaceOnUse" cx="450.908936" cy="189.579361" fx="450.908936" fy="189.579361" r="21.166656" gradientTransform="matrix(-0.000000261256,-0.117199,0.210958,-0.000000152308,-30.566426,93.408435)">
<stop offset="0" style="stop-color:rgb(0%,0%,0%);stop-opacity:0.313726;"/>
<stop offset="0.222222" style="stop-color:rgb(0%,0%,0%);stop-opacity:0.27451;"/>
<stop offset="1" style="stop-color:rgb(0%,0%,0%);stop-opacity:0;"/>
</radialGradient>
<radialGradient id="radial3" gradientUnits="userSpaceOnUse" cx="450.908936" cy="189.579361" fx="450.908936" fy="189.579361" r="21.166656" gradientTransform="matrix(0.000000261256,0.117199,-0.210958,0.000000152308,52.892776,-13.275783)">
<stop offset="0" style="stop-color:rgb(0%,0%,0%);stop-opacity:0.313726;"/>
<stop offset="0.222222" style="stop-color:rgb(0%,0%,0%);stop-opacity:0.27451;"/>
<stop offset="1" style="stop-color:rgb(0%,0%,0%);stop-opacity:0;"/>
</radialGradient>
<linearGradient id="linear1" gradientUnits="userSpaceOnUse" x1="254" y1="233.5" x2="254" y2="254.666672" gradientTransform="matrix(0.0210958,0,0,0.093759,21.681369,18.173614)">
<stop offset="0" style="stop-color:rgb(0%,0%,0%);stop-opacity:0.27451;"/>
<stop offset="1" style="stop-color:rgb(0%,0%,0%);stop-opacity:0;"/>
</linearGradient>
<radialGradient id="radial4" gradientUnits="userSpaceOnUse" cx="450.908936" cy="189.579361" fx="450.908936" fy="189.579361" r="21.166656" gradientTransform="matrix(0.000000261256,-0.117199,-0.210958,-0.000000152308,68.769302,93.408435)">
<stop offset="0" style="stop-color:rgb(0%,0%,0%);stop-opacity:0.313726;"/>
<stop offset="0.222222" style="stop-color:rgb(0%,0%,0%);stop-opacity:0.27451;"/>
<stop offset="1" style="stop-color:rgb(0%,0%,0%);stop-opacity:0;"/>
</radialGradient>
<radialGradient id="radial5" gradientUnits="userSpaceOnUse" cx="450.908936" cy="189.579361" fx="450.908936" fy="189.579361" r="21.166656" gradientTransform="matrix(-0.000000261256,0.117199,0.210958,0.000000152308,-14.689906,-13.275782)">
<stop offset="0" style="stop-color:rgb(0%,0%,0%);stop-opacity:0.313726;"/>
<stop offset="0.222222" style="stop-color:rgb(0%,0%,0%);stop-opacity:0.27451;"/>
<stop offset="1" style="stop-color:rgb(0%,0%,0%);stop-opacity:0;"/>
</radialGradient>
<radialGradient id="radial6" gradientUnits="userSpaceOnUse" cx="450.908936" cy="189.579361" fx="450.908936" fy="189.579361" r="21.166656" gradientTransform="matrix(-0.000000261256,-0.117199,0.210958,-0.000000152308,-14.689906,93.408435)">
<stop offset="0" style="stop-color:rgb(0%,0%,0%);stop-opacity:0.313726;"/>
<stop offset="0.222222" style="stop-color:rgb(0%,0%,0%);stop-opacity:0.27451;"/>
<stop offset="1" style="stop-color:rgb(0%,0%,0%);stop-opacity:0;"/>
</radialGradient>
<radialGradient id="radial7" gradientUnits="userSpaceOnUse" cx="450.908936" cy="189.579361" fx="450.908936" fy="189.579361" r="21.166656" gradientTransform="matrix(0.000000261256,0.117199,-0.210958,0.000000152308,68.769296,-13.275783)">
<stop offset="0" style="stop-color:rgb(0%,0%,0%);stop-opacity:0.313726;"/>
<stop offset="0.222222" style="stop-color:rgb(0%,0%,0%);stop-opacity:0.27451;"/>
<stop offset="1" style="stop-color:rgb(0%,0%,0%);stop-opacity:0;"/>
</radialGradient>
<linearGradient id="linear2" gradientUnits="userSpaceOnUse" x1="760" y1="1615.118164" x2="760" y2="175.118134" gradientTransform="matrix(0.0248071,0,0,0.0248071,0,0.00000000000000282)">
<stop offset="0" style="stop-color:rgb(36.078432%,41.960785%,75.294119%);stop-opacity:1;"/>
<stop offset="1" style="stop-color:rgb(47.450981%,52.549022%,79.607844%);stop-opacity:1;"/>
</linearGradient>
</defs>
<g id="surface1">
<path style=" stroke:none;fill-rule:nonzero;fill:url(#linear0);" d="M 8.929688 40.066406 L 13.394531 40.066406 L 13.394531 42.050781 L 8.929688 42.050781 Z M 8.929688 40.066406 "/>
<path style=" stroke:none;fill-rule:nonzero;fill:url(#radial0);" d="M 13.394531 40.066406 L 17.363281 40.066406 L 17.363281 38.082031 L 13.394531 38.082031 Z M 13.394531 40.066406 "/>
<path style=" stroke:none;fill-rule:nonzero;fill:url(#radial1);" d="M 8.929688 40.066406 L 4.960938 40.066406 L 4.960938 42.050781 L 8.929688 42.050781 Z M 8.929688 40.066406 "/>
<path style=" stroke:none;fill-rule:nonzero;fill:url(#radial2);" d="M 8.929688 40.066406 L 4.960938 40.066406 L 4.960938 38.082031 L 8.929688 38.082031 Z M 8.929688 40.066406 "/>
<path style=" stroke:none;fill-rule:nonzero;fill:url(#radial3);" d="M 13.394531 40.066406 L 17.363281 40.066406 L 17.363281 42.050781 L 13.394531 42.050781 Z M 13.394531 40.066406 "/>
<path style=" stroke:none;fill-rule:nonzero;fill:url(#linear1);" d="M 24.808594 40.066406 L 29.273438 40.066406 L 29.273438 42.050781 L 24.808594 42.050781 Z M 24.808594 40.066406 "/>
<path style=" stroke:none;fill-rule:nonzero;fill:url(#radial4);" d="M 29.273438 40.066406 L 33.242188 40.066406 L 33.242188 38.082031 L 29.273438 38.082031 Z M 29.273438 40.066406 "/>
<path style=" stroke:none;fill-rule:nonzero;fill:url(#radial5);" d="M 24.808594 40.066406 L 20.839844 40.066406 L 20.839844 42.050781 L 24.808594 42.050781 Z M 24.808594 40.066406 "/>
<path style=" stroke:none;fill-rule:nonzero;fill:url(#radial6);" d="M 24.808594 40.066406 L 20.839844 40.066406 L 20.839844 38.082031 L 24.808594 38.082031 Z M 24.808594 40.066406 "/>
<path style=" stroke:none;fill-rule:nonzero;fill:url(#radial7);" d="M 29.273438 40.066406 L 33.242188 40.066406 L 33.242188 42.050781 L 29.273438 42.050781 Z M 29.273438 40.066406 "/>
<path style=" stroke:none;fill-rule:nonzero;fill:url(#linear2);" d="M 18.851562 4.34375 C 16.105469 4.34375 13.890625 6.558594 13.890625 9.304688 C 13.890625 10.933594 14.671875 12.375 15.875 13.28125 L 15.875 14.265625 L 6.945312 14.265625 C 6.394531 14.265625 5.953125 14.710938 5.953125 15.257812 L 5.953125 24.191406 L 6.941406 24.191406 C 7.84375 22.984375 9.285156 22.207031 10.914062 22.207031 C 13.664062 22.207031 15.875 24.417969 15.875 27.167969 C 15.875 29.914062 13.664062 32.128906 10.914062 32.128906 C 9.285156 32.128906 7.84375 31.351562 6.941406 30.144531 L 5.953125 30.144531 L 5.953125 39.074219 C 5.953125 39.625 6.394531 40.066406 6.945312 40.066406 L 15.875 40.066406 L 15.875 39.078125 C 14.671875 38.175781 13.890625 36.734375 13.890625 35.105469 C 13.890625 32.355469 16.105469 30.144531 18.851562 30.144531 C 21.601562 30.144531 23.816406 32.355469 23.816406 35.105469 C 23.816406 36.734375 23.035156 38.175781 21.832031 39.078125 L 21.832031 40.066406 L 30.761719 40.066406 C 31.308594 40.066406 31.753906 39.625 31.753906 39.074219 L 31.753906 30.144531 L 32.738281 30.144531 C 33.644531 31.351562 35.085938 32.128906 36.714844 32.128906 C 39.464844 32.128906 41.675781 29.914062 41.675781 27.167969 C 41.675781 24.417969 39.464844 22.207031 36.714844 22.207031 C 35.085938 22.207031 33.644531 22.984375 32.738281 24.191406 L 31.753906 24.191406 L 31.753906 15.257812 C 31.753906 14.710938 31.308594 14.265625 30.761719 14.265625 L 21.832031 14.265625 L 21.832031 13.28125 C 23.035156 12.375 23.816406 10.933594 23.816406 9.304688 C 23.816406 6.558594 21.601562 4.34375 18.851562 4.34375 Z M 18.851562 4.34375 "/>
<path style=" stroke:none;fill-rule:nonzero;fill:rgb(100%,100%,100%);fill-opacity:0.392157;" d="M 18.851562 4.34375 C 16.105469 4.34375 13.890625 6.558594 13.890625 9.304688 C 13.890625 9.429688 13.898438 9.550781 13.90625 9.675781 C 14.097656 7.101562 16.230469 5.089844 18.851562 5.089844 C 21.476562 5.089844 23.609375 7.101562 23.800781 9.675781 C 23.808594 9.550781 23.816406 9.429688 23.816406 9.304688 C 23.816406 6.558594 21.601562 4.34375 18.851562 4.34375 Z M 6.945312 14.265625 C 6.394531 14.265625 5.953125 14.710938 5.953125 15.257812 L 5.953125 16.003906 C 5.953125 15.453125 6.394531 15.011719 6.945312 15.011719 L 15.875 15.011719 L 15.875 14.265625 Z M 21.832031 14.265625 L 21.832031 15.011719 L 30.761719 15.011719 C 31.308594 15.011719 31.753906 15.453125 31.753906 16.003906 L 31.753906 15.257812 C 31.753906 14.710938 31.308594 14.265625 30.761719 14.265625 Z M 36.714844 22.207031 C 35.085938 22.207031 33.644531 22.984375 32.738281 24.191406 L 31.753906 24.191406 L 31.753906 24.933594 L 32.738281 24.933594 C 33.644531 23.726562 35.085938 22.949219 36.714844 22.949219 C 39.339844 22.949219 41.472656 24.964844 41.660156 27.539062 C 41.671875 27.417969 41.675781 27.292969 41.675781 27.167969 C 41.675781 24.417969 39.464844 22.207031 36.714844 22.207031 Z M 15.863281 27.539062 C 15.671875 30.113281 13.539062 32.128906 10.914062 32.128906 C 9.285156 32.128906 7.84375 31.351562 6.941406 30.144531 L 5.953125 30.144531 L 5.953125 30.886719 L 6.941406 30.886719 C 7.84375 32.09375 9.285156 32.871094 10.914062 32.871094 C 13.664062 32.871094 15.875 30.660156 15.875 27.910156 C 15.875 27.785156 15.871094 27.660156 15.863281 27.539062 Z M 13.90625 35.472656 C 13.898438 35.597656 13.890625 35.722656 13.890625 35.847656 C 13.890625 37.480469 14.671875 38.921875 15.875 39.824219 L 15.875 39.078125 C 14.761719 38.246094 14.011719 36.949219 13.90625 35.472656 Z M 23.800781 35.472656 C 23.691406 36.949219 22.945312 38.246094 21.832031 39.078125 L 21.832031 39.824219 C 23.035156 38.921875 23.816406 37.480469 23.816406 35.847656 C 23.816406 35.722656 23.808594 35.597656 23.800781 35.472656 Z M 23.800781 35.472656 "/>
<path style=" stroke:none;fill-rule:nonzero;fill:rgb(0%,0%,0%);fill-opacity:0.235294;" d="M 13.90625 8.929688 C 13.898438 9.054688 13.890625 9.179688 13.890625 9.304688 C 13.890625 10.933594 14.671875 12.375 15.875 13.28125 L 15.875 12.535156 C 14.761719 11.703125 14.011719 10.40625 13.90625 8.929688 Z M 23.800781 8.929688 C 23.691406 10.40625 22.945312 11.703125 21.832031 12.535156 L 21.832031 13.28125 C 23.035156 12.375 23.816406 10.933594 23.816406 9.304688 C 23.816406 9.179688 23.808594 9.054688 23.800781 8.929688 Z M 10.914062 21.460938 C 9.285156 21.460938 7.84375 22.238281 6.941406 23.445312 L 5.953125 23.445312 L 5.953125 24.191406 L 6.941406 24.191406 C 7.84375 22.984375 9.285156 22.207031 10.914062 22.207031 C 13.539062 22.207031 15.671875 24.222656 15.863281 26.792969 C 15.871094 26.671875 15.875 26.546875 15.875 26.421875 C 15.875 23.671875 13.664062 21.460938 10.914062 21.460938 Z M 41.660156 26.792969 C 41.472656 29.367188 39.339844 31.382812 36.714844 31.382812 C 35.085938 31.382812 33.644531 30.605469 32.738281 29.398438 L 31.753906 29.398438 L 31.753906 30.144531 L 32.738281 30.144531 C 33.644531 31.351562 35.085938 32.128906 36.714844 32.128906 C 39.464844 32.128906 41.675781 29.914062 41.675781 27.167969 C 41.675781 27.042969 41.671875 26.917969 41.660156 26.792969 Z M 18.851562 29.398438 C 16.105469 29.398438 13.890625 31.613281 13.890625 34.359375 C 13.890625 34.484375 13.898438 34.609375 13.90625 34.730469 C 14.097656 32.15625 16.230469 30.144531 18.851562 30.144531 C 21.476562 30.144531 23.609375 32.15625 23.800781 34.730469 C 23.808594 34.609375 23.816406 34.484375 23.816406 34.359375 C 23.816406 31.613281 21.601562 29.398438 18.851562 29.398438 Z M 5.953125 38.328125 L 5.953125 39.074219 C 5.953125 39.625 6.394531 40.066406 6.945312 40.066406 L 15.875 40.066406 L 15.875 39.320312 L 6.945312 39.320312 C 6.394531 39.320312 5.953125 38.878906 5.953125 38.328125 Z M 31.753906 38.328125 C 31.753906 38.878906 31.308594 39.320312 30.761719 39.320312 L 21.832031 39.320312 L 21.832031 40.066406 L 30.761719 40.066406 C 31.308594 40.066406 31.753906 39.625 31.753906 39.074219 Z M 31.753906 38.328125 "/>
<path style="fill:none;stroke-width:11.338583;stroke-linecap:round;stroke-linejoin:round;stroke:rgb(12.941177%,12.941177%,12.941177%);stroke-opacity:1;stroke-miterlimit:4;" d="M 759.927471 175.101398 C 649.229374 175.101398 559.946557 264.384215 559.946557 375.082311 C 559.946557 440.745336 591.439614 498.850026 639.938923 535.381973 L 639.938923 575.063225 L 279.973279 575.063225 C 257.770673 575.063225 239.977096 593.014267 239.977096 615.059407 L 239.977096 975.182517 L 279.815813 975.182517 C 316.190294 926.525743 374.294985 895.190151 439.958009 895.190151 C 550.813571 895.190151 639.938923 984.315503 639.938923 1095.171065 C 639.938923 1205.869161 550.813571 1295.151978 439.958009 1295.151978 C 374.294985 1295.151978 316.190294 1263.816386 279.815813 1215.159612 L 239.977096 1215.159612 L 239.977096 1575.125256 C 239.977096 1597.327862 257.770673 1615.121439 279.973279 1615.121439 L 639.938923 1615.121439 L 639.938923 1575.282722 C 591.439614 1538.908241 559.946557 1480.80355 559.946557 1415.140526 C 559.946557 1304.284964 649.229374 1215.159612 759.927471 1215.159612 C 870.783032 1215.159612 960.065849 1304.284964 960.065849 1415.140526 C 960.065849 1480.80355 928.572792 1538.908241 880.073484 1575.282722 L 880.073484 1615.121439 L 1240.039128 1615.121439 C 1262.084268 1615.121439 1280.03531 1597.327862 1280.03531 1575.125256 L 1280.03531 1215.159612 L 1319.716562 1215.159612 C 1356.248509 1263.816386 1414.353199 1295.151978 1480.016224 1295.151978 C 1590.871785 1295.151978 1679.997137 1205.869161 1679.997137 1095.171065 C 1679.997137 984.315503 1590.871785 895.190151 1480.016224 895.190151 C 1414.353199 895.190151 1356.248509 926.525743 1319.716562 975.182517 L 1280.03531 975.182517 L 1280.03531 615.059407 C 1280.03531 593.014267 1262.084268 575.063225 1240.039128 575.063225 L 880.073484 575.063225 L 880.073484 535.381973 C 928.572792 498.850026 960.065849 440.745336 960.065849 375.082311 C 960.065849 264.384215 870.783032 175.101398 759.927471 175.101398 Z M 759.927471 175.101398 " transform="matrix(0.0248071,0,0,0.0248071,0,0)"/>
</g>
</svg>
